public/flags/DM.svg

<svg fill="none" height="53" viewBox="0 0 61 53" width="61" xmlns="http://www.w3.org/2000/svg" xmlns:xlink="http://www.w3.org/1999/xlink"><linearGradient id="a" gradientUnits="userSpaceOnUse" x1="20.6665" x2="20.6665" y1="14.3333" y2="34.1667"><stop offset="0" stop-color="#e02c42"/><stop offset="1" stop-color="#d22036"/></linearGradient><mask id="b" height="43" maskUnits="userSpaceOnUse" width="59" x="1" y="3"><rect fill="#fff" height="42.5" rx="4.24286" width="59" x="1" y="3"/></mask><rect fill="#fff" height="42.5" rx="4.24286" width="59" x="1" y="3"/><g clip-rule="evenodd" fill-rule="evenodd" mask="url(#b)"><path d="m1 20h59v-17h-59z" fill="#108753"/><path d="m1 45.5h59v-17h-59z" fill="#108753"/><path d="m34.7143 45.5h-8.4286v-17h-25.2857v-8.5h25.2857v-17h8.4286v17h25.2857v8.5h-25.2857z" fill="#fff"/><path d="m31.9047 45.5h-2.8095v-19.8333h-28.0952v-2.8334h28.0952v-19.8333h2.8095v19.8333h28.0953v2.8334h-28.0953z" fill="#262626"/><path d="m29.0952 45.5h-2.8095v-22.6667h-25.2857v-2.8333h25.2857v-17h2.8095v17h30.9048v2.8333h-30.9048z" fill="#fcd449"/><path d="m30.4998 34.1667c5.4308 0 9.8334-4.4399 9.8334-9.9167s-4.4026-9.9167-9.8334-9.9167-9.8333 4.4399-9.8333 9.9167 4.4025 9.9167 9.8333 9.9167z" fill="url(#a)"/><path d="m30.4999 31.3333c3.8791 0 7.0238-3.1713 7.0238-7.0833s-3.1447-7.0833-7.0238-7.0833c-3.8792 0-7.0238 3.1713-7.0238 7.0833s3.1446 7.0833 7.0238 7.0833z" stroke="#0e673f" stroke-dasharray="1.41 5.66" stroke-linecap="round" stroke-width="2.82857"/><path d="m30.5003 27.0833c1.5516 0 1.4047-1.2685 1.4047-2.8333s.1469-2.8333-1.4047-2.8333c-1.5517 0-1.4048 1.2685-1.4048 2.8333s-.1469 2.8333 1.4048 2.8333z" fill="#0e673f"/></g></svg>

<svg width="61" height="53" viewBox="0 0 61 53" fill="none" xmlns="http://www.w3.org/2000/svg">
<rect x="1" y="3" width="59" height="42.5" rx="4.24286" fill="white"/>
<mask id="mask0" mask-type="alpha" maskUnits="userSpaceOnUse" x="1" y="3" width="59" height="43">
<rect x="1" y="3" width="59" height="42.5" rx="4.24286" fill="white"/>
</mask>
<g mask="url(#mask0)">
<path fill-rule="evenodd" clip-rule="evenodd" d="M1 20H60V3H1V20Z" fill="#108753"/>
<path fill-rule="evenodd" clip-rule="evenodd" d="M1 45.5H60V28.5H1V45.5Z" fill="#108753"/>
<path fill-rule="evenodd" clip-rule="evenodd" d="M34.7143 45.5H26.2857V28.5H1V20H26.2857V3H34.7143V20H60V28.5H34.7143V45.5Z" fill="white"/>
<path fill-rule="evenodd" clip-rule="evenodd" d="M31.9047 45.5H29.0952V25.6667H1V22.8333H29.0952V3H31.9047V22.8333H60V25.6667H31.9047V45.5Z" fill="#262626"/>
<path fill-rule="evenodd" clip-rule="evenodd" d="M29.0952 45.5H26.2857V22.8333H1V20H26.2857V3H29.0952V20H60V22.8333H29.0952V45.5Z" fill="#FCD449"/>
<path fill-rule="evenodd" clip-rule="evenodd" d="M30.4998 34.1667C35.9306 34.1667 40.3332 29.7268 40.3332 24.25C40.3332 18.7732 35.9306 14.3333 30.4998 14.3333C25.069 14.3333 20.6665 18.7732 20.6665 24.25C20.6665 29.7268 25.069 34.1667 30.4998 34.1667Z" fill="url(#paint0_linear)"/>
<path fill-rule="evenodd" clip-rule="evenodd" d="M30.4999 31.3333C34.379 31.3333 37.5237 28.162 37.5237 24.25C37.5237 20.338 34.379 17.1667 30.4999 17.1667C26.6207 17.1667 23.4761 20.338 23.4761 24.25C23.4761 28.162 26.6207 31.3333 30.4999 31.3333Z" stroke="#0E673F" stroke-width="2.82857" stroke-linecap="round" stroke-dasharray="1.41 5.66"/>
<path fill-rule="evenodd" clip-rule="evenodd" d="M30.5003 27.0833C32.0519 27.0833 31.905 25.8148 31.905 24.25C31.905 22.6852 32.0519 21.4167 30.5003 21.4167C28.9486 21.4167 29.0955 22.6852 29.0955 24.25C29.0955 25.8148 28.9486 27.0833 30.5003 27.0833Z" fill="#0E673F"/>
</g>
<defs>
<linearGradient id="paint0_linear" x1="20.6665" y1="14.3333" x2="20.6665" y2="34.1667" gradientUnits="userSpaceOnUse">
<stop stop-color="#E02C42"/>
<stop offset="1" stop-color="#D22036"/>
</linearGradient>
</defs>
</svg>
